X:1
T:Fac mecum signum
T:Fac mecum signum
T:Andreas de Sylva
T:Source : Trium vocum cantiones---Nürnberg---J.Petreius---1541. Editor : André Vierendeels (24/04/16).
T:Notes : Original clefs : C3, C4, F4 Editorial accidentals above the staff Original note values have been halved Dotted bracket indicates black notes Square bracket indicates ligature m42 in T1 : "G F" notated as "FE" in original print m44 in T1 : "G" notated as "F" in original print m51 in T1 : "C" notated as "D" in original print Discantus and tenor interchanged from original print                           
T:©
T:©
T:©
T:©
T:©
C:Andreas de Sylva
Z:©
%%score [ 1 2 3 ]
L:1/8
Q:1/4=95
M:2/2
K:C
V:1 treble-8 nm="Tenor 1" snm="T 1"
V:2 treble-8 nm="Tenor 2" snm="T 2"
V:3 bass nm="Bass" snm="B"
V:1
 e8 | f4 e3 d | B2 c4 BA | G2 e3 d g2- | gf e4 dc | B2 AB cdec | d2 g4 f2 | g8 | z8 | z8 | %10
w: Fac|me- cum _|_ si- gnum _|_ in _ bo-||||num,|||
 z2 G2 d4 | e2 g3 fed | c2 e4 d2 | c2 B2 A4 | G4 z2 d2 | d2 B2 e4 | d4 z2 c2- | cdec d2 e2- | %18
w: ut vi-|de- ant _ _ _|_ qui o-|de- * runt|me, et|con- fun- dan-|tur, et|_ _ _ _ _ con-|
 e2 dc B2 g2- | gf e4 d2 | e4 d4 | z2 g2 g2 e2 | g6 fe | d2 c2 d2 G2- | G2 G2 G4 | G2 A2 B2 G2- | %26
w: * fun- * * dan-||* tur,|et con- fun-|dan- * *|* * tur quo-|* ni- am|tu Do- mi- ne|
 G2 g3 f e2 | d2 g3 f e2- | e2 d2 e4- | e4 z2 c2 | d2 e3 d g2- | ge f2 g4 | z4 z2 G2 | %33
w: _ au- * *|di- * * *|* sti me,|_ et|con- so- * la|_ tus es me,|et|
 c2 d2 e2 c2 | f2 e2 d4 | c4 z2 B2 | c2 d2 e4- | e2 d2 c4 |[M:3/2] B8 z4 | z12 | e6 e2 e4 | %41
w: con- so- la- tus|es _ _|me, [et|con- so- la-|* tus es|me,]||di- ru- pi-|
 d4 g6 f2 | e4 e4 d4 | e4 g8 | e6 c2 d4 | e4 z4 d4 | g6 f2 e4 | d4 g6 f2 | e2 d2 e4 f4 | e4 d6 c2 | %50
w: sti Do- mi-|ne vin- cu-|la me-||a, ti-|bi sa- cri-|fi- ca- *|* bo ho- sti-|am lau- *|
 c6 B2 B2 AB |[M:2/2] c4 z2 G2 | c3 B c3 d | ef g3 e f2 | g2 e3 c d2 | e2 g3 e f2 | g2 G2 c3 B | %57
w: |dis, et|no- men Do- *|* * * * mi|ni in- vo- ca-||bo et no- men|
 c2 d2 e2 c2- | cdec d2 e2- | e2 dc d4 | z2 G2 c3 B | c2 d2 e2 f2- | fe e4 d2 | e8- | e8- | e8 |] %66
w: Do- mi- ni in-|* * * * vo- ca-|* * * bo,|et no- men|Do- mi- ni in-|* vo- ca- *|bo|_||
V:2
 z8 | z8 | z8 | B8 | c4 B4 | d4 G4 | B4 A4 | G4 z2 C2 | G4 A2 c2- | c2 BA B2 d2- | d2 c2 c2 B2 | %11
w: |||Fac|me- cum|si- gnum|in bo-|num, ut|vi- de- *|* * * ant qui|_ o- de- runt|
 c4 z2 G2 | A2 G2 c3 B | A2 G4 F2 | G2 B4 AG | A2 d3 c c2- | c2 B2 c4 | z2 G2 G2 E2 | A4 G4 | %19
w: me, ut|vi- de- ant _|_ qui o-|de- * * *||* runt me,|et con- fun-|dan- tur,|
 z2 c2 c2 A2 | c4 BABc | d2 e4 c2 | d2 e4 dc | B2 c4 B2 | c8 | z8 | z4 G4 | G2 G4 G2 | %28
w: et con- fun-|dan- * * * *||||tur,||quo-|ni- am tu|
 A2 B2 G2 G2 | A2 c3 BcA | B2 c3 BAG | A4 G2 c2 | c2 d2 e4- | e2 B2 cdec | d2 c2 z2 B2 | c3 d e4- | %36
w: Do- mi- ne au-|di- * * * *||sti me, et|co- so- la-|* tus es _ _ _|_ me, et|con- so- la-|
 e2 d2 c2 B2- | B2 AG G4 |[M:3/2] z4 B6 B2 | B4 A4 c4- | c2 B2 B4 B4- | B2 B2 B4 A4 | c6 B2 B4- | %43
w: * us es- *|* * * me,|di- ru-|pi- sti Do-|* mi- ne, di-|* ru- pi- sti|Do- mi- ne|
 B4 G4 A4 | G4 A8 | B12 | z4 B4 B4- | B2 B2 B4 B4 | B4 B4 c4 | B4 A6 G2 |"^#" G8 F4 |[M:2/2] G8 | %52
w: _ vin- cu-|la me-|a,|ti- bi|_ sa- cri- fi-|ca- bo ho-|sti- am _|lau- *|dis,|
 z4 z2 G2 | c3 B c2 d2 | e2 c3 A B2 | cBAG A4 | G4 C2 F2- | FE F2 G2 A2 | z2 A2 B2 G2 | %59
w: et|no- men Do- mi-|ni in- vo- ca-||bo et no-|* men Do- mi- ni|in- vo- ca-|
 AG c3 B BA/B/ | c2 C2 G3 F | G2 A2 G2 A2- | AG E2 F4 | E2 A3 G c2- | c2 B2 c4 | B8 |] %66
w: |bo et no- men|Do- mi- ni in-|* * vo- ca-|bo, in- vo- ca-||bo.|
V:3
 z8 | z4 E,4- | E,4 F,4 | E,4 G,4 | C,4 E,4 | D,4 C,4 | z2 G,,2 D,4 | E,2 G,3 F,E,D, | %8
w: |Fac|_ me-|cum si-|gnum in|bo- num,|ut vi-|de- ant _ _ _|
 C,2 G,4 F,E, | F,2 G,4 F,2- | F,G, E,2 D,4 | C,8- | C,4 z4 | z2 G,,2 D,4 | E,2 G,4 F,E, | %15
w: qui o- * *|* de- *|* * * runt|me,|_|ut vi-|de- ant _ _|
 F,2 G,4 E,2 | F,2 G,2 C,4- | C,4 z4 | z4 z2 E,2 | E,2 C,2 F,4 | E,4 z2 G,2 | G,2 E,2 A,4 | G,8- | %23
w: _ qui o-|de- runt me;|_|et|con- fun- dan-|tur, et|con- fun- dan-|tur,|
 G,8 | C,4 C,2 C,2- | C,2 C,2 D,2 E,2 | C,4 z2 C,2 | B,,2 C,3 D, E,2 | F,2 G,2 C,4- | C,4 z4 | %30
w: _|quo- ni- am|_ tu Do- mi-|ne au-|di- * * *|* sti me,|_|
 z4 z2 G,,2 | C,2 D,2 E,2 C,2 | F,4 E,4 | z8 | z2 E,2 F,2 G,2 | A,6 G,2 | F,4 E,4- | E,8 | %38
w: et|con- so- la- tus|es me,||et con- so-|la- tus|es me,|_|
[M:3/2] E,6 E,2 E,4 | D,4 F,6 E,2 | E,8 G,4- | G,2 G,2 G,4 F,4 | A,6 G,2 G,4- | G,4 E,4 D,4 | %44
w: di- ru- pi-|sti Do- mi-|ne, di-|* ru- pi- sti|Do- mi- ne|_ vin- cu-|
 E,4 F,8 | E,8 z4 | E,4 G,6 G,2 | G,4 G,4 G,4 | G,4 E,4 A,4 | G,4 F,6 E,2 | C,4 D,8 | %51
w: la me-|a,|ti- bi sa-|cri- fi- ca-|bo ho- sti-|am lau- *||
[M:2/2] C,2 E,2 E,2 E,2 | F,2 D,2 C,4 | z8 | z4 z2 G,,2 | C,3 B,, C,2 D,2 | E,4 z4 | z8 | z8 | %59
w: dis, et no- men|Do- mi- ni,||et|no- men Do- mi-|ni,|||
 z4 z2 G,,2 | C,3 B,, C,2 D,2 | E,2 F,2 E,2 D,2- | D,2 C,2 D,4 | A,,4 z2 A,2- | A,2 G,2 A,4 | %65
w: et|no- men Do- mi-|ni in- vo- ca-||bo, in-|* vo- ca-|
 E,8 |] %66
w: bo.|

